X: 53
T: No_146_It_Is_the_Woodpecker.krn
N: Derived from No_146_It_Is_the_Woodpecker.krn
%%abc-version 2.0
%%abcx-abcm2ps-target-version 5.9.1 (29 Sep 2008)
%%abc-creator hum2abc beta
%%abcx-conversion-date 2019/03/15 08:37:56
%%humdrum-veritas 2324198695
%%humdrum-veritas-data 1341452774
%%linebreak <none>
%%barnumbers 0
L: 1/8
M: 2/4
K: Ab clef=bass
F,2 [I:setbarnb 1]| 
C3/B,/ CB, ||  
[M:3/4]A,3/A,/ A,G,G,2 ||  
[M:2/4]G,3F, | 
F,2G,2 | 
B,3/G,/ (3B,A,G, ||  
[M:3/4]F,3/F,/ F,F,F,2 | 
F,6 ||  
[M:2/4]F,2F,=D, | 
G,3/G,/ G,3/G,/ ||  
[M:3/8]F,2=D, ||  
[M:2/4](3F,F,F,F,2 ||  
[M:3/4]F,6 ||  
[M:2/4]E,2E,2 | 
F,2E,E, | 
F,F, F,E, | 
F,F,F,2 | 
F,2E,3/F,/ | 
F,2E,E, | 
F,F,F,2 ||  
[M:3/4]F,4-F,2 :|]  



